X:1
T:Bourr\'ee
O:France
Z:Bert Van Vreckem <bert.vanvreckem@gmail.com> 2004-06-26
R:Bourr\'ee
M:2/4
L:1/8
K:G
"G"d2 BG|"D"F>G AB|c2 AF|"G"G>A Bc|"G"d2 BG|"D"F>G AB|c2 AF|"G"G2 G2:|
|:"D"F>A FA|"G"G>B GB|"D"A>c Ac|"G"B2 G2|"D"F>A FA|\
"G"G>B GB|[1"Am"dc BA|"D"d2 z2:|[2"D"dc BA|"G"G2 z2|]
